assets/images/audio/muted.svg

<svg width="24" height="24" viewBox="0 0 24 24" fill="none" xmlns="http://www.w3.org/2000/svg">
<path d="M21.707 20.293L19.684 18.27C21.1845 16.5263 22.0063 14.3004 21.999 12C21.999 7.909 19.527 4.547 16 3V5C18.387 6.386 19.999 9.047 19.999 12C19.9946 13.7766 19.4072 15.5026 18.327 16.913L17.042 15.628C17.644 14.536 18 13.19 18 12C18 10.229 17.225 8.1 16 7V14.586L14 12.586V4C13.9999 3.81911 13.9508 3.64164 13.8578 3.48649C13.7648 3.33133 13.6315 3.2043 13.472 3.11892C13.3125 3.03354 13.1329 2.99302 12.9522 3.00166C12.7715 3.0103 12.5966 3.06779 12.446 3.168L7.727 6.313L3.707 2.293L2.293 3.707L20.293 21.707L21.707 20.293ZM12 5.868V10.586L9.169 7.755L12 5.868ZM4 17H6.697L12.445 20.832C12.5958 20.9321 12.7708 20.9896 12.9516 20.9984C13.1324 21.0072 13.3122 20.967 13.472 20.882C13.6316 20.7965 13.765 20.6694 13.858 20.514C13.951 20.3587 14.0001 20.181 14 20V18.121L12 16.121V18.132L7.555 15.168C7.53 15.151 7.499 15.148 7.473 15.135C7.35491 15.0707 7.22491 15.0312 7.091 15.019C7.059 15.016 7.032 15 7 15H4V9H4.879L3.102 7.223C2.77189 7.38824 2.4941 7.64183 2.29954 7.95556C2.10499 8.26929 2.00129 8.63084 2 9V15C2 16.103 2.897 17 4 17Z" fill="white"/>
</svg>

<svg xmlns='http://www.w3.org/2000/svg'  viewBox='0 0 24 24' fill='#000000' width='24' height='24'><path d="m21.707 20.293-2.023-2.023A9.566 9.566 0 0 0 21.999 12c0-4.091-2.472-7.453-5.999-9v2c2.387 1.386 3.999 4.047 3.999 7a8.113 8.113 0 0 1-1.672 4.913l-1.285-1.285C17.644 14.536 18 13.19 18 12c0-1.771-.775-3.9-2-5v7.586l-2-2V4a1 1 0 0 0-1.554-.832L7.727 6.313l-4.02-4.02-1.414 1.414 18 18 1.414-1.414zM12 5.868v4.718L9.169 7.755 12 5.868zM4 17h2.697l5.748 3.832a1.004 1.004 0 0 0 1.027.05A1 1 0 0 0 14 20v-1.879l-2-2v2.011l-4.445-2.964c-.025-.017-.056-.02-.082-.033a.986.986 0 0 0-.382-.116C7.059 15.016 7.032 15 7 15H4V9h.879L3.102 7.223A1.995 1.995 0 0 0 2 9v6c0 1.103.897 2 2 2z"></path></svg>
